!!!!SEGMENT: pl-kozmzk--mzk-m-346--048_walczynski-franciszek-cantantibus-organis-allegro.krn
!!!id: 18xx:2843
!!!COM: Walczyński, Franciszek
!!!OTL: Cantantibus organis – Allegro
!!!PDT: 1898
!!!SMS-siglum: PL-KOZmzk
!!!SMS-shelfmark: mzk/m/346
!!!NIFC-rismID: 1001109614
!!!URL-scan: https://repozytorium.nifc.pl/islandora/object/pl-kozmzk%3A7453/datastream/PDF/view
!!!ONB-nifc:
!!!SMS-variant:
!!!SMS-altvar:
!!!OMD: Allegro.
**kern	**kern	**dynam
*part1	*part1	*part1
*staff2	*staff1	*
*	*I"48.	*
*clefF4	*clefG2	*
*k[b-e-a-]	*k[b-e-a-]	*
*M6/8	*M6/8	*
=1	=1	=1
*^	*^	*
2.rF	2.rC	(8b-/L	2.r	f
.	.	8ee-/	.	.
.	.	8g/J	.	.
.	.	8b-/L	.	.
.	.	8e-/	.	.
.	.	8g/J	.	.
=2	=2	=2	=2	=2
8B-/L	(8BB-\L	8f/L	8d\	p
8G/	8C\	8e-/	4e-\	.
8c/J	8AA-\J	8f/J	.	.
4.Bn/	4.GG\)	4.g/)	4.d\	.
=3	=3	=3	=3	=3
(8B-X/L	2.rAA	2.rdd	2.rg	f
8e-/	.	.	.	.
8G/J	.	.	.	.
8B-/L	.	.	.	.
8E-/	.	.	.	.
8G/J	.	.	.	.
=4	=4	=4	=4	=4
*	*	*	*	*^
!	!	!	!	!LO:DY:a	!LO:DY:b=2:rj
4.A-/	(4.BB-\	(4f/	4d\	p	p
.	.	8e-/	8e-\	.	.
4.G/)	4.E-\)	4.e-/)	4.B-\	.	.
*	*	*	*	*v	*v
=5	=5	=5	=5	=5
(8g/L	2.r	(8g/L	4r	f
8f#X/	.	8an/	.	.
8fn/J	.	8bn/J	8r	.
8e-/L	.	8cc/L	[4.g\	.
8d/	.	8dd/	.	.
8c/J	.	8ee-/J	.	.
=6	=6	=6	=6	=6
4.Bn/	2.r	8dd/L	2.g\]	.
.	.	8gg/	.	.
.	.	8ff/J	.	.
8c/L	.	8ee-/L	.	.
8d/	.	8dd/	.	.
8e-/J	.	8cc/J	.	.
=7	=7	=7	=7	=7
!	!	!	!LO:N:vis=4.	!
4f/	2.r	4dd/	4a-\	.
8f#X/	.	8cc/	8an\	.
4.g/)	.	4.bn/)	4.g\	.
*v	*v	*	*	*
*	*v	*v	*
=8	=8	=8
(<8G\L	(>8G</L	p
8F#X\	8An</	.
8Fn\J	8Bn</J	.
8E-\L	8c</L	.
8D\	8d</	.
8C\J	8e-</J	.
=9	=9	=9
4.BBn\	8d</L	.
.	8g</	.
.	8f</J	.
8C\L	8e-</L	.
8D\	8d</	.
8E-\J	8c</J	.
=10	=10	=10
*^	*	*
2.A-X 2.F;/	2.BB-X;\)	4d/	.
.	.	8c/	.
!LO:TX:b:i:t=rall.	!	!	!
.	.	4.B-;/	.
*v	*v	*	*
!!LO:LB:g=original
=11	=11	=11
*	*^	*
!	!	!	!LO:DY:t=pf
2.ryy	(8b-/L)	2.r	fp
.	8ee-/	.	.
.	8g/J	.	.
.	8b-/L	.	.
.	8e-/	.	.
.	8g/J)	.	.
=12	=12	=12	=12
*^	*	*	*
(4B-/	(4BB-\	(4.f/	(4.d\	>
8A-/	8BBn\	.	.	.
4G/)	4C\)	4e-/)	4c\)	.
8r	8r	8r	8ryy	]
=13	=13	=13	=13	=13
2.rF	2.rC	(8e-/L	2.r	.
.	.	8g/	.	.
.	.	8c/J	.	.
.	.	8e-/L	.	.
.	.	8G/	.	.
.	.	8c/J	.	.
=14	=14	=14	=14	=14
8rA	8rAA	8B-/L	8B-\L	.
8rA	8rAA	8c/	8An\	.
!LO:TX:b:i:t=Ped.	!	!	!	!LO:DY:b=2:rj
8F/	8BB-\	8d/J	8A-X\J	pp
([4.E-/	[4.EE-\	4.e-^/)	[4.G\	.
=15	=15	=15	=15	=15
8E-/L]	2.EE-\_	[2.e-/	4.G\]	.
8D/	.	.	.	.
8D-X/J	.	.	.	.
4.C/)	.	.	(8A-\L	.
.	.	.	8B-\	.
.	.	.	8c\J	.
=16	=16	=16	=16	=16
4.C-X/	2.EE-\_	2.e-/_	8A-\L	.
.	.	.	8E-\	.
.	.	.	8F\J	.
(4.BB-/	.	.	(4.G\)	.
=17	=17	=17	=17	=17
!	!	!	!	!LO:HP:a
(4C/)	2.EE-\_	2.e-/_	(8A-\L)	<
.	.	.	8A-\	.
8D-X/	.	.	8B-\J	.
8E-/L	.	.	8c\L	.
8D-/	.	.	8B-\	.
8C/J	.	.	8A-\J	.
=18	=18	=18	=18	=18
!	!	!	!	!LO:HP:a
8BB-/L	2.EE-\_	2.e-/_	8G\L	[ >
8C/	.	.	8A-\	.
8AA-/J	.	.	8F\J	.
[4.BB-/)	.	.	[4.G\	.
=19	=19	=19	=19	=19
4BB-/]	4EE-\]	4e-/]	4G\])	.
8r	8r	8r	8ryy	]
!	!	!	!	!LO:DY:a:rj
4C-X/	4EE-^\	4e-^/	4A-\	fp
8r	8r	8r	8ryy	.
=20	=20	=20	=20	=20
2.BB-/	2.EE-;\	2.e-;/	2.G\	pp
*v	*v	*	*	*
*	*v	*v	*
==	==	==
*-	*-	*-
!!!system-decoration: {(s1,s2)}
!!!RDF**kern: > = above
!!!RDF**kern: < = below
!!!ENC: Krzysztof Stępień
!!!END: 2021-07-28
!!!ENC: Andrzej Kubiczek
!!!END: 2021-08-09
